X:2670
T:Carnival de Venices. GS.087
T:When Daylight Shines,aka. GS.087
T:Uncle Jim's Jig(Bob Cann's),aka. GS.087
M:6/8
L:1/8
Q:110
S:George Spencer m/s, Leeds,1831
R:Jig
O:England
A:Leeds
H:1831
Z:vmp.Cherri Graebe
K:D major
.a | (b2a)(g2f) | (a2ge2).e | (f2g) (b2a) | f3 d2 a | b2 a (ag).f | (a2g
e2).e | (f2g)(b2a) | d3 d2 :|!|: .a | (ag).f (fe).d |
(c2e) (b2a) | (^g2a)(=g2a) | (f3 d2) .a | (ag).f (fe).d | (c2e) (b2a) |
(^g2a) (=g2e) | d3d2:||


